icon/ir/antenna-signal-rounded.svg

<svg stroke-width="1.5" viewBox="0 0 24 24" fill="none" xmlns="http://www.w3.org/2000/svg" height="1em" width="1em">
  <path d="M2 15V9C2 5.68629 4.68629 3 8 3H16C19.3137 3 22 5.68629 22 9V15C22 18.3137 19.3137 21 16 21H8C4.68629 21 2 18.3137 2 15Z" stroke="currentColor" stroke-width="1.5"/>
  <path d="M15 9C15 9 16 10.125 16 12C16 13.875 15 15 15 15" stroke="currentColor" stroke-linecap="round" stroke-linejoin="round"/>
  <path d="M12 12.01L12.01 11.9989" stroke="currentColor" stroke-linecap="round" stroke-linejoin="round"/>
  <path d="M17 7C17 7 19 8.78571 19 12C19 15.2143 17 17 17 17" stroke="currentColor" stroke-linecap="round" stroke-linejoin="round"/>
  <path d="M9 9C9 9 8 10.125 8 12C8 13.875 9 15 9 15" stroke="currentColor" stroke-linecap="round" stroke-linejoin="round"/>
  <path d="M7 7C7 7 5 8.78571 5 12C5 15.2143 7 17 7 17" stroke="currentColor" stroke-linecap="round" stroke-linejoin="round"/>
</svg>

<svg width="24" height="24" stroke-width="1.5" fill="none" xmlns="http://www.w3.org/2000/svg"><path d="M2 15V9a6 6 0 0 1 6-6h8a6 6 0 0 1 6 6v6a6 6 0 0 1-6 6H8a6 6 0 0 1-6-6Z" stroke="currentColor"/><path d="M15 9s1 1.125 1 3-1 3-1 3M12 12.01l.01-.011M17 7s2 1.786 2 5-2 5-2 5M9 9s-1 1.125-1 3 1 3 1 3M7 7s-2 1.786-2 5 2 5 2 5" stroke="currentColor" stroke-linecap="round" stroke-linejoin="round"/></svg>
